X: 41494
T: U-Turn
R: reel
M: 4/4
K: Ddorian
|d2 Ad fedf|ec (3ccc GcEG|d2 Ad fedf|eaag agfe|
d2 Ad fedf|ec (3ccc GcEG|FEDF EDCE|FDEC D4:|
A,DDD FDDD|CDEG FEDC|A,DDD FDDD|d3 c AGFD|
A,DDD FDDD|CDEG FEDG|c3 A GECE|FDEC D4:|

